X:2-1
T:Praeludium II
Q:"Allegretto"
M:3/4
L:1/4
%%staves {(1 2) 3}
% %linebreak $
K:Bb
%%writefields Q 0
Q:1/4=90
V:1 treble
(f2g-|g2f)|(e2-e/f/|e2d)|(e^cd)|
V:2
z[FBd]/z/_d|c3|zB[Fc]-|[Fc][Fc][FB]|B2A|
V:3 bass
L:1/8
(.B,,.F,.B,.D.=E.B,)|(.A,,.F,.A,.C.F.A)|\
	(.G,,.E,.B,.E)(.A,,.[F,C])|(.B,,.F,.G,.A,.B,.A,)|\
	(.G,.E._E.G, .^F,.D-|
V:1
(=Bg3/f/)|(fe/d/g|BAG/F/)|!arpeggio!f2[Gg]-|\
	[Gg][Ff][Gg]/[Aa]/|!>!bed/^c/|
V:2
_AG2-|G2c/_B/|F2E|D/z/ [FBd]/z/[_d=e]|c3|B2-B/B/-|
V:3
D2E,G,=A,=B,&D=F,E,2D,2|x4ED&C,=B,CDE,2|\
	DF,CF,B,A,|[B,,,B,,] D,F,B,_D=E|\
	[A,,,A,,] C,F,A,CF|G,,B,,E,G,B,=E|
V:1
^c2d|f=e>d|f=e>d|dG/A/B/c/|B2A|_AA>B|
V:2
BA2|B2A|D=EF|=E3/F/D/E/|z[CG][CF]|DD2|
V:3
F,,D,F,A,DF|G,,D,B,D [A,,F,]D|B,,F,G,B,,=B,,_A,|\
	=G,C,B,A,G,C,|F,,C,D,=E,F,F,,|F,C_CE,D,B,|
V:1
_A2G|cc>d|c2=B|e2d-|dcB|AA>G|
V:2
F2G|G^F=F|[EG]>^FG|zG2-|G2G|G2=E|
V:3
E,B,CDEB,|=A,EDA,_A,_A,,|G,,G,CE DG,|\
	C,G,=A,C, B,D,|E,B,CE, DD,|C,E =E^C,A,B,|
V:1
[^Fd]3|=e2^f|g2^f|=e2-e/^f/|=e2d|_e2d-|
V:2
D3|z[G^c][Ac-]|[B^c][Bc][Ac-]|[G^c][^Gd][=GA]-|\
	[GA][GA]^F|z[_GA]2|
V:3
A,D,,A,,D, ^F,A,|B,D,B,=E A,D,|G,D,G,=E A,D,|\
	B,D,=B,D,^CD,|D,,D, =B,^CDA,|=C,A,EC, D,D|
%
V:1
dcB-|BAG-|GF2|f2g-|g2f|e2e/f/|
V:2
_G2F|E3|[CE]2B,/C/|z[FBd]/z/_d|c3|zB[Fc]-|
V:3
_E,A,CE, D,B,|C,F,^F,C,B,,G,|A,,C,A,F,,G,,A,,|\
	.B,,.F,.B,.D.=E.B,|.A,,.F,.A,.C.F.A|\
	G,,E,B,E A,,[F,C]|
V:1
e2d|e^cd|=Bg>f|fe/d/g|BAG/F/|!arpeggio!f2[Gg]-|
V:2
[Fc][Fc][FB]|B2A|_AG2-|G2c/_B/|F2E|D/z/ [FBd]/z/[_d=e]|
V:3
B,,F,G,A,B,A,|G,E=EG,^F,D-|D=F,E,G, A,=B,&x4D,2|\
	C,=B,CD ED&x4E,2|\
	DF,CF, B,A,|[B,,,B,,]D, F,B,_D=E|
V:1
[Gg][Ff]g/a/|b/g/ed/>^c/|^cde/=f/|gcB/>=A/|f/d/B>c|de>A|
V:2
c2G/A/|B3-|BA_A|G2_G|F2=E/_E/|DA>E|
V:3
[A,,,A,,]C, F,A,CF|G,,B,,E,G, B,=E|\
	^F,,^F, A,D=B,=F,|=E,,C,=E,G, C_E,|\
	D,,D, F,B,-B,2&x4 G,_G,|F,,F, CF,FF,|
V:1
B2-B/d/|c2d|_e2f|g2a|b3/f/e/d/|fed-|
V:2
D2z|z[=EB]/z/ [FB]/z/|z[GB]/z/ [FB]/z/|\
	z[G_d=e][A_ef]|z[Bd]2|zA[FB]|
V:3
B,,F,B,D Fz|G,B,C=E F,z|_E,B,EG D,z|\
	_D,G,B,=E C,[F,_E]|B,,F,B,D Fz|C,B,A,E DD,&C,4D,2|
V:1
dcB-|Bc>=d|[DB]z[df]|[Bd]/z/zz|z3|[DF]3|[B,D]3|]
V:2
G2F|=E_E2|x3|x3|x3|x3|x3|]
V:3
E,=B,CG DF,&E,4F,2|_D2B,2A,2&G,2_G,2F,,2|\
	B,,F,B,DFA[K:treble]|B^cd=efa|b2z2z2[K:bass]|\
	B,6&F,6|F,6&B,,6|]

